; generated by PrusaSlicer 2.5.0+win64 on 2023-04-18 at 15:22:04 UTC


;
;
; 

; external perimeters extrusion width = 0.45mm
; perimeters extrusion width = 0.45mm
; infill extrusion width = 0.45mm
; solid infill extrusion width = 0.45mm
; top infill extrusion width = 0.40mm
; first layer extrusion width = 0.42mm

; external perimeters extrusion width = 0.45mm
; perimeters extrusion width = 0.45mm
; infill extrusion width = 0.45mm
; solid infill extrusion width = 0.45mm
; top infill extrusion width = 0.40mm
; first layer extrusion width = 0.42mm

M73 P0 R79
M73 Q0 S79
M201 X1000 Y1000 Z200 E5000 ; sets maximum accelerations, mm/sec^2
M203 X200 Y200 Z12 E120 ; sets maximum feedrates, mm / sec
M204 P1250 R1250 T1250 ; sets acceleration (P, T) and retract acceleration (R), mm/sec^2
M205 X8.00 Y8.00 Z0.40 E4.50 ; sets the jerk limits, mm/sec
M205 S0 T0 ; sets the minimum extruding and travel feed rate, mm/sec
M107
;TYPE:Custom
M862.3 P "MK3S" ; printer model check
M862.1 P0.4 ; nozzle diameter check
M115 U3.11.0 ; tell printer latest fw version
G90 ; use absolute coordinates
M83 ; extruder relative mode
M104 S215 ; set extruder temp
M140 S60 ; set bed temp
M190 S60 ; wait for bed temp
M109 S215 ; wait for extruder temp
G28 W ; home all without mesh bed level
G80 ; mesh bed leveling

G1 Z0.2 F720
G1 Y-3 F1000 ; go outside print area
G92 E0
G1 X60 E9 F1000 ; intro line
G1 X100 E12.5 F1000 ; intro line

G92 E0
M221 S95

; Don't change E values below. Excessive value can damage the printer.

M907 E538 ; set extruder motor current
G21 ; set units to millimeters
G90 ; use absolute coordinates
M83 ; use relative distances for extrusion
M900 K0.05 ; Filament gcode LA 1.5
M900 K30 ; Filament gcode LA 1.0
M107
;LAYER_CHANGE
;Z:0.2
;HEIGHT:0.2
;BEFORE_LAYER_CHANGE
G92 E0.0
;0.2


G1 E-.8 F2100
G1 Z.4 F720
;AFTER_LAYER_CHANGE
;0.2
G1 X87.9 Y54.772 F10800
G1 Z.2 F720
G1 E.8 F2100
M204 S800
;TYPE:Skirt/Brim
;WIDTH:0.42
G1 F1200
G1 X90.887 Y51.784 E.13247
G1 X92.568 Y51.088 E.05704
G1 X101.399 Y51.088 E.27688
G1 X114.517 Y51.121 E.41132
G1 X127.719 Y51.559 E.41414
G1 X140.532 Y52.489 E.40282
G1 X152.449 Y54.615 E.37954
G1 X154.03 Y55.026 E.05122
G1 X155.677 Y55.799 E.05702
G1 X156.481 Y56.336 E.03032
G1 X157.825 Y57.561 E.05702
G1 X158.903 Y59.025 E.05702
G1 X159.406 Y59.989 E.03408
G1 X159.924 Y61.489 E.04975
G1 X160.193 Y63.288 E.05706
G1 X160.208 Y81.165 E.56052
G1 X160.033 Y84.351 E.10005
G1 X159.769 Y86.241 E.05982
G1 X159.063 Y89.348 E.09989
G1 X158.463 Y91.229 E.06191
G1 X157.269 Y94.111 E.0978
G1 X156.363 Y95.865 E.06191
G1 X154.666 Y98.561 E.09989
G1 X152.599 Y101.17 E.10437
G1 X151.364 Y102.485 E.05655
G1 X139.006 Y114.843 E.54797
G1 X138.077 Y115.636 E.0383
G1 X137.273 Y116.173 E.03032
G1 X135.846 Y116.867 E.04975
G1 X134.809 Y117.194 E.03408
G1 X133.861 Y117.382 E.03032
G1 X132.778 Y117.477 E.03408
G1 X131.195 Y117.382 E.04974
G1 X130.472 Y117.25 E.02302
G1 X129.429 Y116.946 E.03408
G1 X128.536 Y116.576 E.03032
G1 X91.387 Y95.328 E1.34184
G1 X90.887 Y94.946 E.01971
G1 X87.9 Y91.958 E.13247
G1 X87.204 Y90.278 E.05704
G1 X87.204 Y56.453 E1.06056
G1 X87.877 Y54.827 E.05516
M204 S1000
;WIPE_START
G1 F8640
G1 X90.192 Y52.487 E-.76
;WIPE_END
G1 E-.04 F2100
G1 Z.6 F720
G1 X90.377 Y56.383 F10800
G1 Z.2 F720
G1 E.8 F2100
M204 S800
G1 F1200
G1 X91.113 Y55.318 E.04061
G1 X91.681 Y54.791 E.0243
G1 X92.255 Y54.383 E.02207
G1 X93.592 Y53.856 E.04506
G1 X100.128 Y53.809 E.20493
G1 X100.963 Y54.041 E.02718
G1 X101.782 Y54.434 E.02848
G1 X102.836 Y55.307 E.04291
G1 X103.503 Y56.304 E.03762
G1 X104.128 Y55.384 E.0349
G1 X104.766 Y54.79 E.02732
G1 X105.385 Y54.37 E.02344
G1 X106.791 Y53.861 E.04689
G1 X113.122 Y53.834 E.19849
G1 X114.012 Y54.074 E.02892
G1 X114.873 Y54.494 E.03001
G1 X115.885 Y55.342 E.04142
G1 X116.752 Y56.66 E.04947
G1 X117.33 Y55.821 E.03195
G1 X117.947 Y55.245 E.02647
G1 X118.582 Y54.81 E.02411
G1 X119.923 Y54.313 E.04486
G1 X126.374 Y54.28 E.20226
G1 X127.209 Y54.511 E.02718
G1 X128.029 Y54.904 E.02848
G1 X129.082 Y55.777 E.04291
G1 X129.748 Y56.769 E.03745
G1 X130.444 Y56.122 E.02978
G1 X131.021 Y55.723 E.02201
G1 X132.399 Y55.207 E.04613
G1 X138.696 Y55.153 E.19745
G1 X139.654 Y55.394 E.03097
G1 X140.549 Y55.827 E.03119
G1 X141.635 Y56.758 E.04483
G1 X142.385 Y57.911 E.04313
G1 X142.816 Y59.51 E.05195
G1 X142.79 Y82.529 E.72172
G1 X143.148 Y82.547 E.01123
G1 X143.288 Y81.201 E.04245
G1 X143.318 Y80.196 E.03153
G1 X143.408 Y60.975 E.60265
G1 X143.706 Y60.045 E.03063
G1 X144.051 Y59.383 E.02339
G1 X144.823 Y58.463 E.03766
G1 X145.802 Y57.744 E.03808
G1 X146.967 Y57.28 E.03933
G1 X151.258 Y57.169 E.13458
G1 X152.43 Y57.33 E.03708
G1 X153.535 Y57.692 E.03646
G1 X154.616 Y58.28 E.03858
G1 X155.627 Y59.115 E.0411
G1 X156.436 Y60.106 E.04011
G1 X157.024 Y61.201 E.03896
G1 X157.389 Y62.349 E.03778
G1 X157.54 Y63.568 E.03851
G1 X157.545 Y81.134 E.55078
G1 X157.502 Y82.645 E.0474
G1 X157.375 Y84.154 E.04748
G1 X157.16 Y85.694 E.04874
G1 X156.849 Y87.26 E.05006
G1 X156.458 Y88.769 E.04887
G1 X155.987 Y90.243 E.04852
G1 X155.446 Y91.658 E.0475
G1 X154.828 Y93.042 E.04753
G1 X154.104 Y94.448 E.04959
G1 X153.314 Y95.787 E.04873
G1 X152.455 Y97.074 E.04852
G1 X151.498 Y98.344 E.04987
G1 X150.519 Y99.501 E.04751
G1 X149.483 Y100.599 E.04734
G1 X137.039 Y113.035 E.5516
G1 X136.142 Y113.738 E.03572
G1 X135.139 Y114.276 E.03569
G1 X133.833 Y114.683 E.04289
G1 X132.288 Y114.81 E.04862
G1 X131.28 Y114.695 E.03181
G1 X130.314 Y114.433 E.03138
G1 X129.12 Y113.868 E.04143
G1 X128.082 Y113.092 E.04063
G1 X125.368 Y110.329 E.12142
G1 X124.774 Y109.219 E.03947
G1 X124.471 Y107.969 E.04035
G1 X124.542 Y106.545 E.0447
G1 X124.939 Y105.373 E.03879
G1 X125.608 Y104.36 E.03807
G1 X130.122 Y99.84 E.20029
G1 X130.345 Y99.662 E.00894
G1 X133.32 Y96.686 E.13194
G1 X133.499 Y96.463 E.00894
G1 X135.668 Y94.294 E.09619
G1 X132.671 Y94.299 E.09397
G1 X131.366 Y93.903 E.04275
G1 X130.225 Y93.157 E.04274
G1 X129.592 Y92.483 E.029
G1 X129.151 Y91.825 E.02484
G1 X128.486 Y92.442 E.02845
G1 X127.909 Y92.841 E.022
G1 X126.597 Y93.345 E.04406
G1 X120.012 Y93.376 E.20646
G1 X118.788 Y92.961 E.04051
G1 X117.819 Y92.322 E.03639
G1 X117.157 Y91.64 E.02982
G1 X116.472 Y90.604 E.03894
G1 X115.924 Y91.409 E.03055
G1 X115.306 Y91.986 E.02653
G1 X114.671 Y92.421 E.02411
G1 X113.329 Y92.919 E.04487
G1 X106.878 Y92.949 E.20227
G1 X105.639 Y92.547 E.04084
G1 X104.652 Y91.911 E.03681
G1 X103.912 Y91.145 E.03342
G1 X103.482 Y90.489 E.02457
G1 X102.879 Y91.378 E.03367
G1 X102.26 Y91.955 E.02653
G1 X101.623 Y92.391 E.02422
G1 X100.347 Y92.876 E.0428
G1 X93.889 Y92.926 E.20249
G1 X92.591 Y92.514 E.04268
G1 X91.607 Y91.88 E.03671
G1 X90.911 Y91.17 E.03117
G1 X90.39 Y90.382 E.02962
G1 X89.867 Y88.606 E.05807
G1 X89.94 Y57.653 E.97049
G1 X90.357 Y56.44 E.04024
M204 S1000
G1 X90.703 Y56.574 F10800
M204 S800
G1 F1200
G1 X91.385 Y55.58 E.03782
G1 X91.928 Y55.076 E.02323
G1 X92.454 Y54.704 E.02018
G1 X93.648 Y54.233 E.04025
G1 X100.053 Y54.18 E.20086
G1 X100.818 Y54.39 E.02485
G1 X101.56 Y54.739 E.02574
G1 X102.573 Y55.579 E.04124
G1 X103.554 Y57.075 E.05609
G1 X103.721 Y56.659 E.01406
G1 X104.402 Y55.644 E.03831
G1 X104.993 Y55.092 E.02535
G1 X105.539 Y54.715 E.02081
G1 X106.827 Y54.238 E.04306
G1 X113.049 Y54.205 E.1951
G1 X113.866 Y54.422 E.02649
G1 X114.649 Y54.798 E.02724
G1 X115.621 Y55.613 E.03977
G1 X116.402 Y56.817 E.045
G1 X116.554 Y57.36 E.01769
G1 X116.829 Y57.371 E.0086
G1 X116.948 Y57.046 E.01085
G1 X117.604 Y56.082 E.03658
G1 X118.175 Y55.546 E.02453
G1 X118.739 Y55.154 E.02154
G1 X119.96 Y54.69 E.04098
G1 X126.3 Y54.65 E.19877
G1 X127.064 Y54.86 E.02485
G1 X127.807 Y55.21 E.02574
G1 X128.82 Y56.049 E.04124
G1 X129.748 Y57.457 E.05287
G1 X130.076 Y56.98 E.01815
G1 X130.67 Y56.424 E.0255
G1 X131.217 Y56.046 E.02086
G1 X132.436 Y55.584 E.04088
G1 X138.674 Y55.531 E.1956
G1 X139.541 Y55.755 E.02809
G1 X140.324 Y56.131 E.02723
G1 X141.334 Y56.987 E.0415
G1 X142.052 Y58.091 E.04132
G1 X142.439 Y59.535 E.04685
G1 X142.409 Y85.646 E.81871
G1 X142.724 Y85.699 E.01001
G1 X142.979 Y84.96 E.02452
G1 X143.235 Y84.042 E.02986
G1 X143.435 Y83.112 E.02985
G1 X143.578 Y82.17 E.02985
G1 X143.664 Y81.222 E.02986
G1 X143.695 Y80.202 E.032
G1 X143.785 Y61.007 E.60184
G1 X144.059 Y60.179 E.02736
G1 X144.375 Y59.578 E.02131
G1 X145.096 Y58.724 E.03503
G1 X146.004 Y58.063 E.0352
G1 X147.074 Y57.643 E.03604
G1 X151.223 Y57.545 E.13013
G1 X152.329 Y57.694 E.03501
G1 X153.401 Y58.045 E.03537
G1 X154.419 Y58.602 E.03639
G1 X155.347 Y59.369 E.03773
G1 X156.113 Y60.302 E.03786
G1 X156.67 Y61.332 E.03672
G1 X157.024 Y62.446 E.03666
G1 X157.163 Y63.579 E.03579
M73 P0 R78
G1 X157.168 Y81.132 E.55033
G1 X157.125 Y82.629 E.04698
G1 X157 Y84.118 E.04683
G1 X156.789 Y85.626 E.04775
G1 X156.482 Y87.171 E.04939
G1 X156.097 Y88.659 E.0482
G1 X155.633 Y90.113 E.04786
G1 X155.096 Y91.518 E.04717
G1 X154.486 Y92.884 E.04688
G1 X153.776 Y94.261 E.0486
G1 X152.998 Y95.582 E.04807
G1 X152.144 Y96.86 E.04819
G1 X151.206 Y98.105 E.04887
G1 X150.241 Y99.246 E.04686
G1 X149.214 Y100.334 E.04692
G1 X136.78 Y112.76 E.55116
G1 X135.949 Y113.414 E.03317
G1 X135.009 Y113.921 E.03348
G1 X133.742 Y114.316 E.04164
G1 X132.277 Y114.433 E.04606
G1 X131.339 Y114.322 E.02963
G1 X130.43 Y114.074 E.02954
G1 X129.299 Y113.535 E.03927
G1 X128.341 Y112.818 E.03754
G1 X125.656 Y110.085 E.12012
G1 X125.134 Y109.106 E.03478
G1 X124.849 Y107.958 E.03709
G1 X124.908 Y106.638 E.0414
G1 X125.268 Y105.56 E.03565
G1 X125.912 Y104.583 E.03668
G1 X130.381 Y100.114 E.19815
G1 X130.596 Y99.944 E.00861
G1 X133.602 Y96.937 E.13332
G1 X133.773 Y96.722 E.00861
G1 X136.58 Y93.916 E.12444
G1 X132.699 Y93.922 E.12167
G1 X131.503 Y93.552 E.03925
G1 X130.485 Y92.883 E.0382
G1 X129.878 Y92.237 E.0278
G1 X129.471 Y91.624 E.02306
G1 X129.257 Y91.004 E.02058
G1 X128.853 Y91.586 E.02224
G1 X128.26 Y92.14 E.02543
G1 X127.712 Y92.519 E.02089
G1 X126.559 Y92.968 E.03879
G1 X120.103 Y93.009 E.20242
G1 X118.933 Y92.612 E.03873
G1 X118.046 Y92.02 E.03343
G1 X117.441 Y91.391 E.02736
G1 X116.967 Y90.668 E.02712
G1 X116.712 Y89.834 E.02736
G1 X116.439 Y89.827 E.00854
G1 X116.329 Y90.137 E.0103
G1 X115.65 Y91.149 E.03822
G1 X115.078 Y91.685 E.02457
G1 X114.515 Y92.078 E.02154
G1 X113.292 Y92.542 E.04099
G1 X106.966 Y92.58 E.19837
G1 X105.78 Y92.196 E.03909
G1 X104.877 Y91.608 E.03379
G1 X104.197 Y90.898 E.03082
G1 X103.765 Y90.228 E.02501
G1 X103.519 Y89.484 E.02456
G1 X103.284 Y90.105 E.02081
G1 X102.605 Y91.118 E.03826
G1 X102.033 Y91.654 E.02457
G1 X101.467 Y92.047 E.02162
G1 X100.245 Y92.511 E.04099
G1 X93.918 Y92.549 E.19838
G1 X92.732 Y92.164 E.03907
M73 P1 R78
M73 Q1 S79
G1 X91.831 Y91.576 E.03373
G1 X91.195 Y90.921 E.02865
G1 X90.721 Y90.199 E.02708
G1 X90.244 Y88.579 E.05294
G1 X90.307 Y57.745 E.96679
G1 X90.683 Y56.631 E.03686
M204 S1000
;WIPE_START
G1 F8640
G1 X91.385 Y55.58 E-.29184
G1 X91.928 Y55.076 E-.17111
G1 X92.454 Y54.704 E-.14861
G1 X93.052 Y54.468 E-.14844
;WIPE_END
G1 E-.04 F2100
G1 Z.6 F720
G1 X116.92 Y58.305 F10800
G1 Z.2 F720
G1 E.8 F2100
M204 S800
G1 F1200
G1 X117.276 Y57.234 E.03537
G1 X117.903 Y56.312 E.03498
G1 X118.422 Y55.832 E.02215
G1 X118.898 Y55.496 E.01827
G1 X119.999 Y55.067 E.03704
G1 X126.226 Y55.021 E.19527
G1 X126.921 Y55.209 E.02258
G1 X127.588 Y55.517 E.02302
G1 X128.521 Y56.281 E.03781
G1 X129.245 Y57.379 E.04125
G1 X129.543 Y58.454 E.03498
G1 X130.35 Y57.239 E.04574
G1 X130.917 Y56.71 E.02431
G1 X131.412 Y56.369 E.01886
G1 X132.474 Y55.96 E.03566
G1 X138.652 Y55.908 E.19372
G1 X139.397 Y56.103 E.02414
G1 X140.102 Y56.436 E.02445
G1 X141.033 Y57.216 E.0381
G1 X141.72 Y58.272 E.03948
G1 X142.062 Y59.559 E.04175
G1 X142.03 Y87.496 E.87594
G1 X142.323 Y87.563 E.00941
G1 X142.649 Y86.894 E.02333
G1 X143.022 Y85.993 E.03057
G1 X143.34 Y85.072 E.03056
G1 X143.601 Y84.133 E.03057
G1 X143.806 Y83.18 E.03056
G1 X143.953 Y82.216 E.03057
G1 X144.041 Y81.245 E.03057
G1 X144.072 Y80.209 E.03251
G1 X144.162 Y61.041 E.60099
G1 X144.41 Y60.317 E.02401
M73 Q1 S78
G1 X144.699 Y59.773 E.01929
G1 X145.368 Y58.987 E.03238
G1 X146.204 Y58.383 E.03232
G1 X147.178 Y58.007 E.03275
G1 X151.187 Y57.92 E.12571
G1 X152.261 Y58.065 E.034
G1 X153.266 Y58.398 E.03318
G1 X154.221 Y58.924 E.0342
G1 X155.092 Y59.647 E.03549
G1 X155.79 Y60.498 E.03452
G1 X156.316 Y61.464 E.03447
G1 X156.659 Y62.544 E.03553
G1 X156.786 Y63.591 E.03307
G1 X156.791 Y81.124 E.54973
G1 X156.748 Y82.613 E.04673
G1 X156.625 Y84.081 E.04618
G1 X156.418 Y85.558 E.04676
G1 X156.116 Y87.082 E.04871
G1 X155.737 Y88.55 E.04753
G1 X155.279 Y89.984 E.0472
G1 X154.749 Y91.369 E.04651
G1 X154.144 Y92.725 E.04655
G1 X153.449 Y94.074 E.0476
G1 X152.676 Y95.386 E.04773
G1 X151.834 Y96.646 E.04752
G1 X150.915 Y97.865 E.04787
G1 X149.964 Y98.991 E.04621
G1 X148.946 Y100.069 E.04649
G1 X136.521 Y112.486 E.55073
G1 X135.754 Y113.091 E.03064
G1 X134.879 Y113.567 E.03123
G1 X133.65 Y113.95 E.04037
G1 X132.268 Y114.056 E.04347
G1 X131.399 Y113.95 E.02745
G1 X130.546 Y113.715 E.02772
G1 X129.479 Y113.204 E.03711
G1 X128.6 Y112.543 E.03447
G1 X125.944 Y109.84 E.11882
G1 X125.494 Y108.99 E.03015
G1 X125.227 Y107.944 E.03386
G1 X125.275 Y106.73 E.0381
G1 X125.598 Y105.745 E.0325
G1 X126.193 Y104.836 E.03407
G1 X130.639 Y100.389 E.19716
G1 X130.846 Y100.227 E.00826
G1 X133.885 Y97.188 E.13476
G1 X134.048 Y96.981 E.00825
G1 X137.491 Y93.537 E.15269
G1 X132.728 Y93.545 E.14934
G1 X131.643 Y93.2 E.03571
G1 X130.744 Y92.608 E.03376
G1 X130.183 Y92.015 E.0256
G1 X129.801 Y91.439 E.02165
G1 X129.383 Y90.132 E.04302
G1 X128.579 Y91.326 E.04514
G1 X128.013 Y91.855 E.02427
G1 X127.517 Y92.195 E.01886
G1 X126.456 Y92.604 E.03566
G1 X120.195 Y92.641 E.19632
G1 X119.078 Y92.263 E.03696
G1 X118.304 Y91.744 E.02921
G1 X117.726 Y91.143 E.02616
G1 X117.298 Y90.487 E.02456
G1 X116.868 Y89.023 E.04785
G1 X116.92 Y58.365 E.96127
M204 S1000
;WIPE_START
G1 F8640
G1 X117.276 Y57.234 E-.27363
G1 X117.903 Y56.312 E-.2576
G1 X118.422 Y55.832 E-.16312
G1 X118.654 Y55.668 E-.06565
;WIPE_END
G1 E-.04 F2100
G1 Z.6 F720
G1 X129.755 Y59.342 F10800
G1 Z.2 F720
G1 E.8 F2100
M204 S800
G1 F1200
G1 X130.057 Y58.362 E.03216
G1 X130.652 Y57.467 E.0337
G1 X131.143 Y57.011 E.02102
G1 X131.57 Y56.713 E.01632
G1 X132.577 Y56.325 E.03384
G1 X138.628 Y56.285 E.18971
G1 X139.282 Y56.463 E.02126
G1 X139.881 Y56.742 E.02073
G1 X140.733 Y57.447 E.03466
G1 X141.387 Y58.452 E.0376
G1 X141.685 Y59.582 E.03666
G1 X141.652 Y88.961 E.92115
G1 X141.932 Y89.036 E.00909
G1 X142.556 Y87.946 E.03936
G1 X142.993 Y87.049 E.0313
G1 X143.374 Y86.127 E.03128
G1 X143.7 Y85.184 E.03128
G1 X143.968 Y84.223 E.03129
G1 X144.177 Y83.248 E.03128
G1 X144.327 Y82.261 E.03128
G1 X144.418 Y81.268 E.03128
G1 X144.449 Y80.215 E.03301
G1 X144.539 Y61.076 E.6001
G1 X144.76 Y60.458 E.02058
G1 X145.021 Y59.969 E.01738
G1 X145.639 Y59.25 E.02973
G1 X146.402 Y58.705 E.02942
G1 X147.281 Y58.371 E.02946
G1 X151.179 Y58.298 E.12225
G1 X152.161 Y58.429 E.03105
G1 X153.1 Y58.737 E.03098
G1 X154.024 Y59.245 E.03308
G1 X154.813 Y59.901 E.03216
G1 X155.468 Y60.695 E.03228
G1 X155.976 Y61.628 E.03333
G1 X156.287 Y62.607 E.03219
G1 X156.409 Y63.602 E.03145
G1 X156.414 Y81.121 E.54928
G1 X156.372 Y82.587 E.04598
G1 X156.25 Y84.034 E.04553
G1 X156.045 Y85.5 E.04643
G1 X155.749 Y86.993 E.0477
G1 X155.373 Y88.45 E.0472
G1 X154.921 Y89.864 E.04653
G1 X154.399 Y91.23 E.04586
G1 X153.802 Y92.566 E.04589
G1 X153.121 Y93.888 E.0466
G1 X152.354 Y95.19 E.0474
G1 X151.523 Y96.432 E.04685
G1 X150.623 Y97.626 E.04688
G1 X149.679 Y98.744 E.04588
G1 X148.673 Y99.809 E.04592
G1 X136.263 Y112.211 E.55012
G1 X135.534 Y112.784 E.02908
G1 X134.716 Y113.227 E.02916
G1 X133.599 Y113.576 E.0367
G1 X132.294 Y113.679 E.04103
G1 X131.459 Y113.577 E.0264
G1 X130.664 Y113.356 E.02586
G1 X129.66 Y112.872 E.03494
G1 X128.838 Y112.251 E.0323
G1 X126.263 Y109.637 E.11504
G1 X125.854 Y108.874 E.02715
G1 X125.599 Y107.879 E.03222
G1 X125.65 Y106.775 E.03465
G1 X125.947 Y105.888 E.0293
G1 X126.473 Y105.089 E.03
G1 X130.897 Y100.665 E.19618
G1 X131.096 Y100.51 E.00789
G1 X134.169 Y97.437 E.13627
G1 X134.323 Y97.238 E.00789
G1 X138.403 Y93.158 E.18091
G1 X132.758 Y93.168 E.17699
G1 X131.786 Y92.851 E.03209
