; generated by PrusaSlicer 2.5.0+win64 on 2023-03-22 at 02:01:49 UTC


;
;
; 

; external perimeters extrusion width = 0.45mm
; perimeters extrusion width = 0.45mm
; infill extrusion width = 0.45mm
; solid infill extrusion width = 0.45mm
; top infill extrusion width = 0.40mm
; first layer extrusion width = 0.42mm

M73 P0 R25
M73 Q0 S26
M201 X1000 Y1000 Z200 E5000 ; sets maximum accelerations, mm/sec^2
M203 X200 Y200 Z12 E120 ; sets maximum feedrates, mm / sec
M204 P1250 R1250 T1250 ; sets acceleration (P, T) and retract acceleration (R), mm/sec^2
M205 X8.00 Y8.00 Z0.40 E4.50 ; sets the jerk limits, mm/sec
M205 S0 T0 ; sets the minimum extruding and travel feed rate, mm/sec
M107
;TYPE:Custom
M862.3 P "MK3S" ; printer model check
M862.1 P0.4 ; nozzle diameter check
M115 U3.11.0 ; tell printer latest fw version
G90 ; use absolute coordinates
M83 ; extruder relative mode
M104 S215 ; set extruder temp
M140 S60 ; set bed temp
M190 S60 ; wait for bed temp
M109 S215 ; wait for extruder temp
G28 W ; home all without mesh bed level
G80 ; mesh bed leveling

G1 Z0.2 F720
G1 Y-3 F1000 ; go outside print area
G92 E0
G1 X60 E9 F1000 ; intro line
G1 X100 E12.5 F1000 ; intro line

G92 E0
M221 S95

; Don't change E values below. Excessive value can damage the printer.
M907 E430 ; set extruder motor current
G21 ; set units to millimeters
G90 ; use absolute coordinates
M83 ; use relative distances for extrusion
M900 K0.05 ; Filament gcode LA 1.5
M900 K30 ; Filament gcode LA 1.0
M107
;LAYER_CHANGE
;Z:0.2
;HEIGHT:0.2
;BEFORE_LAYER_CHANGE
G92 E0.0
;0.2


M73 Q0 S25
G1 E-.8 F2100
G1 Z.4 F720
;AFTER_LAYER_CHANGE
;0.2
G1 X110.608 Y91.457 F10800
G1 Z.2 F720
G1 E.8 F2100
M204 S800
;TYPE:Skirt/Brim
;WIDTH:0.42
G1 F1200
G1 X111.172 Y90.788 E.02742
G1 X111.659 Y90.373 E.02008
G1 X113.077 Y89.255 E.05662
G1 X114.241 Y88.491 E.04364
G1 X115.621 Y88.12 E.04479
G1 X135.751 Y88.122 E.63118
G1 X137.699 Y88.928 E.06609
G1 X139.698 Y90.928 E.08868
G1 X140.505 Y92.876 E.06609
G1 X140.503 Y118.376 E.79953
G1 X140.111 Y119.793 E.04612
G1 X138.62 Y120.989 E.05991
G1 X136.37 Y121.739 E.07436
G1 X135.499 Y121.88 E.02766
G1 X116.094 Y121.879 E.60844
G1 X115.451 Y121.803 E.02029
G1 X112.325 Y121.052 E.1008
G1 X111.038 Y120.34 E.04612
G1 X110.214 Y118.374 E.06684
G1 X110.215 Y92.874 E.79953
G1 X110.592 Y91.515 E.04424
M204 S1000
G1 X111.107 Y91.751 F10800
M204 S800
G1 F1200
G1 X111.418 Y91.074 E.02336
G1 X111.92 Y90.646 E.02069
G1 X113.335 Y89.534 E.05641
G1 X114.431 Y88.816 E.04109
G1 X115.621 Y88.497 E.03861
G1 X135.751 Y88.499 E.63118
G1 X137.432 Y89.195 E.05704
G1 X139.432 Y91.195 E.08868
G1 X140.128 Y92.876 E.05704
G1 X140.126 Y118.376 E.79953
G1 X139.735 Y119.683 E.04278
M73 P1 R25
M73 Q1 S25
G1 X138.501 Y120.631 E.04879
G1 X136.251 Y121.381 E.07436
G1 X135.499 Y121.503 E.02388
G1 X116.094 Y121.502 E.60844
G1 X115.539 Y121.436 E.01751
G1 X112.413 Y120.686 E.1008
G1 X111.234 Y120 E.04278
G1 X110.591 Y118.374 E.05482
G1 X110.592 Y92.874 E.79953
G1 X111.082 Y91.805 E.03687
M204 S1000
; printing object T-nut_M3_x6.stl id:0 copy 0
;WIPE_START
G1 F8640
G1 X111.418 Y91.074 E-.18587
G1 X111.92 Y90.646 E-.1524
G1 X113.335 Y89.534 E-.41543
G1 X113.358 Y89.519 E-.0063
;WIPE_END
G1 E-.04 F2100
G1 Z.6 F720
G1 X130.282 Y117.608 F10800
G1 Z.2 F720
G1 E.8 F2100
M204 S800
;TYPE:Perimeter
;WIDTH:0.419999
G1 F1200
G1 X128.911 Y117.589 E.043
G1 X128.911 Y117.249 E.01065
G1 X129.7 Y116.631 E.03145
G1 X130.154 Y116.309 E.01745
G1 X130.121 Y116.831 E.0164
G1 X130.145 Y117.47 E.02006
G1 X130.24 Y117.565 E.00421
M204 S1000
G1 X129.736 Y117.111 F10800
M204 S800
;WIDTH:0.521064
G1 F1200
G1 X129.676 Y117.111 E.00238
G1 X129.646 Y117.163 E.00238
G1 X129.676 Y117.215 E.00238
G1 X129.736 Y117.215 E.00238
G1 X129.766 Y117.163 E.00238
M204 S1000
;WIPE_START
G1 F8640
G1 X129.736 Y117.215 E-.0138
G1 X129.676 Y117.215 E-.0138
G1 X129.646 Y117.163 E-.0138
G1 X129.676 Y117.111 E-.0138
G1 X129.736 Y117.111 E-.0138
;WIPE_END
G1 E-.731 F2100
G1 Z.6 F720
G1 X134.694 Y117.989 F10800
G1 Z.2 F720
G1 E.8 F2100
M204 S800
;WIDTH:0.525951
G1 F1200
G1 X134.659 Y118.286 E.01201
G1 X134.578 Y118.305 E.00334
;WIDTH:0.486873
G1 X134.498 Y118.325 E.00307
;WIDTH:0.447795
G1 X134.417 Y118.345 E.0028
;WIDTH:0.408717
G1 X134.336 Y118.364 E.00253
;WIDTH:0.371398
G1 X132.729 Y118.364 E.04391
;WIDTH:0.373826
G1 X132.457 Y118.363 E.00747
G1 X132.448 Y118.207 E.00431
G1 X132.289 Y118.016 E.00684
G1 X132.729 Y118.036 E.01212
;WIDTH:0.371398
G1 X134.336 Y118.038 E.04391
;WIDTH:0.408717
G1 X134.384 Y118.05 E.00149
;WIDTH:0.447795
G1 X134.431 Y118.062 E.00165
;WIDTH:0.486873
G1 X134.478 Y118.074 E.0018
;WIDTH:0.525951
G1 X134.526 Y118.086 E.00196
G1 X134.642 Y118.019 E.00538
M204 S1000
;WIPE_START
G1 F8640
G1 X134.659 Y118.286 E-.06177
G1 X134.578 Y118.305 E-.01918
G1 X134.498 Y118.325 E-.01918
G1 X134.417 Y118.345 E-.01918
G1 X134.336 Y118.364 E-.01918
G1 X132.729 Y118.364 E-.37121
G1 X132.457 Y118.363 E-.06273
G1 X132.448 Y118.207 E-.0362
G1 X132.289 Y118.016 E-.05737
G1 X132.695 Y118.034 E-.09399
;WIPE_END
G1 E-.04 F2100
G1 Z.6 F720
G1 X135.355 Y117.136 F10800
G1 Z.2 F720
G1 E.8 F2100
M204 S800
;WIDTH:0.570843
G1 F1200
G1 X135.356 Y116.235 E.03956
G1 X136.257 Y117.136 E.05595
G1 X135.415 Y117.136 E.03693
M204 S1000
G1 X134.884 Y117.582 F10800
M204 S800
;WIDTH:0.440418
G1 F1200
G1 X134.904 Y117.497 E.0029
;WIDTH:0.422522
G1 X134.903 Y117.214 E.00895
;WIDTH:0.419999
G1 X134.903 Y115.663 E.04863
G1 X135.423 Y115.663 E.01631
G1 X136.962 Y117.202 E.06824
G1 X136.962 Y117.315 E.00355
G1 X136.962 Y117.589 E.00858
G1 X135.619 Y117.589 E.0421
;WIDTH:0.422522
G1 X135.083 Y117.622 E.01697
;WIDTH:0.440418
G1 X134.836 Y117.784 E.00976
G1 X134.87 Y117.641 E.00488
M204 S1000
G1 X134.526 Y117.497 F10800
M204 S800
;TYPE:External perimeter
;WIDTH:0.419999
G1 F1200
G1 X134.526 Y115.286 E.06934
G1 X135.58 Y115.286 E.03303
G1 X137.339 Y117.046 E.07803
G1 X137.339 Y117.315 E.00845
G1 X137.339 Y117.966 E.0204
G1 X135.278 Y117.966 E.06464
G1 X135.133 Y118.033 E.005
G1 X135.089 Y118.154 E.00404
G1 X135.089 Y118.716 E.01761
G1 X132.122 Y118.717 E.09304
G1 X132.095 Y118.226 E.01543
G1 X131.914 Y118.016 E.00869
;WIDTH:0.41937
G1 X130.682 Y118.007 E.03855
;WIDTH:0.419999
G1 X129.929 Y117.968 E.02365
G1 X128.533 Y117.966 E.04376
G1 X128.533 Y117.069 E.0281
G1 X129.7 Y116.159 E.0464
G1 X130.665 Y115.513 E.0364
G1 X130.64 Y115.834 E.0101
G1 X130.535 Y116.298 E.01492
G1 X130.498 Y116.816 E.01629
G1 X130.522 Y117.455 E.02006
G1 X130.701 Y117.635 E.00794
;WIDTH:0.419633
G1 X131.932 Y117.643 E.03856
;WIDTH:0.419999
G1 X132.729 Y117.683 E.02503
G1 X134.337 Y117.686 E.05041
G1 X134.448 Y117.65 E.00365
G1 X134.499 Y117.551 E.00349
M204 S1000
G1 X134.912 Y117.394 F10800
G1 X134.694 Y117.989
M204 S800
;TYPE:Perimeter
;WIDTH:0.503162
G1 F1200
G1 X134.765 Y117.887 E.00477
;WIDTH:0.47179
G1 X134.836 Y117.784 E.00444
M204 S1000
;WIPE_START
G1 F8640
G1 X134.765 Y117.887 E-.02878
G1 X134.694 Y117.989 E-.02878
;WIPE_END
G1 E-.74244 F2100
G1 Z.6 F720
G1 X115.282 Y117.607 F10800
G1 Z.2 F720
G1 E.8 F2100
M204 S800
;WIDTH:0.419999
G1 F1200
G1 X113.911 Y117.588 E.043
G1 X113.911 Y117.249 E.01065
G1 X114.7 Y116.63 E.03145
G1 X115.154 Y116.308 E.01745
G1 X115.121 Y116.83 E.0164
G1 X115.145 Y117.469 E.02006
G1 X115.24 Y117.564 E.00421
M204 S1000
G1 X114.736 Y117.11 F10800
M204 S800
;WIDTH:0.521062
G1 F1200
G1 X114.676 Y117.11 E.00238
G1 X114.646 Y117.162 E.00238
G1 X114.676 Y117.214 E.00238
G1 X114.736 Y117.214 E.00238
G1 X114.766 Y117.162 E.00238
M204 S1000
;WIPE_START
G1 F8640
G1 X114.736 Y117.214 E-.0138
G1 X114.676 Y117.214 E-.0138
G1 X114.646 Y117.162 E-.0138
G1 X114.676 Y117.11 E-.0138
G1 X114.736 Y117.11 E-.0138
;WIPE_END
G1 E-.731 F2100
G1 Z.6 F720
G1 X119.694 Y117.988 F10800
G1 Z.2 F720
G1 E.8 F2100
M204 S800
;WIDTH:0.525953
G1 F1200
G1 X119.659 Y118.285 E.01201
G1 X119.578 Y118.305 E.00334
;WIDTH:0.486865
G1 X119.498 Y118.324 E.00307
;WIDTH:0.447777
G1 X119.417 Y118.344 E.0028
;WIDTH:0.408689
G1 X119.336 Y118.363 E.00253
;WIDTH:0.371295
G1 X117.729 Y118.363 E.0439
;WIDTH:0.373721
G1 X117.457 Y118.362 E.00747
G1 X117.448 Y118.206 E.00431
G1 X117.289 Y118.015 E.00683
G1 X117.729 Y118.035 E.01212
;WIDTH:0.371295
G1 X119.336 Y118.037 E.0439
;WIDTH:0.408689
G1 X119.384 Y118.049 E.00149
;WIDTH:0.447777
G1 X119.431 Y118.061 E.00165
;WIDTH:0.486865
G1 X119.478 Y118.073 E.0018
;WIDTH:0.525953
G1 X119.526 Y118.085 E.00196
G1 X119.642 Y118.018 E.00538
M204 S1000
;WIPE_START
G1 F8640
G1 X119.659 Y118.285 E-.06176
G1 X119.578 Y118.305 E-.01918
G1 X119.498 Y118.324 E-.01918
G1 X119.417 Y118.344 E-.01918
G1 X119.336 Y118.363 E-.01918
G1 X117.729 Y118.363 E-.37121
G1 X117.457 Y118.362 E-.06273
G1 X117.448 Y118.206 E-.03619
G1 X117.289 Y118.015 E-.05737
G1 X117.695 Y118.033 E-.09401
;WIPE_END
G1 E-.04 F2100
G1 Z.6 F720
G1 X120.355 Y117.135 F10800
G1 Z.2 F720
G1 E.8 F2100
M204 S800
;WIDTH:0.570847
G1 F1200
G1 X120.356 Y116.234 E.03956
G1 X121.257 Y117.135 E.05595
G1 X120.415 Y117.135 E.03693
M204 S1000
G1 X119.884 Y117.581 F10800
M204 S800
;WIDTH:0.440422
G1 F1200
G1 X119.904 Y117.496 E.0029
;WIDTH:0.422523
G1 X119.903 Y117.213 E.00895
;WIDTH:0.419999
G1 X119.903 Y115.662 E.04863
G1 X120.423 Y115.662 E.01631
G1 X121.962 Y117.201 E.06824
G1 X121.962 Y117.314 E.00355
G1 X121.962 Y117.588 E.00858
G1 X120.619 Y117.588 E.0421
;WIDTH:0.422523
G1 X120.083 Y117.621 E.01697
;WIDTH:0.440422
G1 X119.836 Y117.784 E.00976
G1 X119.87 Y117.64 E.00488
M204 S1000
G1 X119.526 Y117.496 F10800
M204 S800
;TYPE:External perimeter
;WIDTH:0.419999
G1 F1200
G1 X119.526 Y115.285 E.06934
G1 X120.58 Y115.285 E.03303
G1 X122.339 Y117.045 E.07803
G1 X122.339 Y117.314 E.00845
G1 X122.339 Y117.965 E.0204
G1 X120.278 Y117.965 E.06464
G1 X120.133 Y118.032 E.005
G1 X120.089 Y118.153 E.00404
G1 X120.089 Y118.715 E.01761
G1 X117.122 Y118.716 E.09304
G1 X117.095 Y118.225 E.01543
G1 X116.914 Y118.015 E.00869
;WIDTH:0.41937
G1 X115.682 Y118.007 E.03855
;WIDTH:0.419999
G1 X114.929 Y117.967 E.02365
G1 X113.533 Y117.965 E.04376
G1 X113.534 Y117.069 E.0281
G1 X114.7 Y116.158 E.04639
G1 X115.665 Y115.512 E.0364
G1 X115.64 Y115.833 E.0101
G1 X115.535 Y116.297 E.01492
G1 X115.498 Y116.815 E.01629
G1 X115.522 Y117.455 E.02006
G1 X115.701 Y117.634 E.00794
;WIDTH:0.419633
G1 X116.932 Y117.642 E.03856
;WIDTH:0.419999
G1 X117.729 Y117.682 E.02503
G1 X119.337 Y117.685 E.05041
G1 X119.448 Y117.649 E.00365
G1 X119.499 Y117.55 E.00349
M204 S1000
G1 X119.912 Y117.393 F10800
G1 X119.694 Y117.988
M204 S800
;TYPE:Perimeter
;WIDTH:0.503162
G1 F1200
G1 X119.765 Y117.886 E.00477
;WIDTH:0.471792
G1 X119.836 Y117.784 E.00444
M204 S1000
;WIPE_START
G1 F8640
G1 X119.765 Y117.886 E-.02878
G1 X119.694 Y117.988 E-.02878
;WIPE_END
G1 E-.74244 F2100
G1 Z.6 F720
G1 X130.283 Y105.608 F10800
G1 Z.2 F720
G1 E.8 F2100
M204 S800
;WIDTH:0.419999
G1 F1200
G1 X128.911 Y105.589 E.043
G1 X128.911 Y105.249 E.01065
G1 X129.701 Y104.631 E.03145
G1 X130.155 Y104.309 E.01745
G1 X130.122 Y104.831 E.0164
G1 X130.146 Y105.47 E.02006
G1 X130.24 Y105.565 E.00421
M204 S1000
G1 X129.736 Y105.111 F10800
M204 S800
;WIDTH:0.52107
G1 F1200
G1 X129.677 Y105.111 E.00238
G1 X129.647 Y105.163 E.00238
G1 X129.677 Y105.215 E.00238
G1 X129.736 Y105.215 E.00238
G1 X129.766 Y105.163 E.00238
M204 S1000
;WIPE_START
G1 F8640
G1 X129.736 Y105.215 E-.0138
G1 X129.677 Y105.215 E-.0138
G1 X129.647 Y105.163 E-.0138
G1 X129.677 Y105.111 E-.0138
G1 X129.736 Y105.111 E-.0138
;WIPE_END
G1 E-.731 F2100
G1 Z.6 F720
G1 X134.694 Y105.989 F10800
G1 Z.2 F720
G1 E.8 F2100
M204 S800
;WIDTH:0.525947
G1 F1200
G1 X134.66 Y106.286 E.01201
G1 X134.579 Y106.306 E.00334
;WIDTH:0.486879
G1 X134.498 Y106.325 E.00307
;WIDTH:0.447811
G1 X134.418 Y106.345 E.0028
;WIDTH:0.408743
G1 X134.337 Y106.364 E.00253
;WIDTH:0.371494
G1 X132.729 Y106.364 E.04392
;WIDTH:0.373925
G1 X132.458 Y106.363 E.00748
G1 X132.449 Y106.207 E.00432
G1 X132.29 Y106.016 E.00684
G1 X132.73 Y106.036 E.01212
;WIDTH:0.371494
G1 X134.337 Y106.038 E.04392
;WIDTH:0.408743
G1 X134.384 Y106.05 E.00149
;WIDTH:0.447811
G1 X134.432 Y106.062 E.00165
;WIDTH:0.486879
G1 X134.479 Y106.074 E.0018
;WIDTH:0.525947
G1 X134.526 Y106.086 E.00196
G1 X134.642 Y106.019 E.00538
M204 S1000
;WIPE_START
G1 F8640
G1 X134.66 Y106.286 E-.06179
G1 X134.579 Y106.306 E-.01918
G1 X134.498 Y106.325 E-.01918
G1 X134.418 Y106.345 E-.01918
G1 X134.337 Y106.364 E-.01918
G1 X132.729 Y106.364 E-.37121
G1 X132.458 Y106.363 E-.06272
G1 X132.449 Y106.207 E-.03622
G1 X132.29 Y106.016 E-.05737
G1 X132.696 Y106.034 E-.09396
;WIPE_END
G1 E-.04 F2100
G1 Z.6 F720
G1 X135.356 Y105.136 F10800
G1 Z.2 F720
G1 E.8 F2100
M204 S800
;WIDTH:0.570844
G1 F1200
G1 X135.356 Y104.235 E.03956
G1 X136.257 Y105.136 E.05595
G1 X135.416 Y105.136 E.03693
M204 S1000
G1 X134.885 Y105.582 F10800
M204 S800
;WIDTH:0.440422
G1 F1200
G1 X134.905 Y105.497 E.0029
;WIDTH:0.422522
G1 X134.904 Y105.214 E.00895
;WIDTH:0.419999
G1 X134.904 Y103.663 E.04863
G1 X135.424 Y103.663 E.01631
G1 X136.963 Y105.202 E.06824
G1 X136.963 Y105.315 E.00355
G1 X136.963 Y105.589 E.00858
G1 X135.62 Y105.589 E.0421
;WIDTH:0.422522
G1 X135.084 Y105.622 E.01697
;WIDTH:0.440422
G1 X134.837 Y105.784 E.00976
G1 X134.871 Y105.641 E.00488
M204 S1000
G1 X134.527 Y105.497 F10800
M204 S800
;TYPE:External perimeter
;WIDTH:0.419999
G1 F1200
G1 X134.527 Y103.286 E.06934
G1 X135.58 Y103.286 E.03303
G1 X137.34 Y105.046 E.07803
G1 X137.34 Y105.315 E.00845
G1 X137.34 Y105.966 E.0204
G1 X135.279 Y105.966 E.06464
G1 X135.134 Y106.033 E.005
G1 X135.09 Y106.154 E.00404
G1 X135.09 Y106.716 E.01761
G1 X132.122 Y106.718 E.09305
G1 X132.096 Y106.226 E.01544
G1 X131.915 Y106.016 E.00869
;WIDTH:0.419369
G1 X130.683 Y106.007 E.03855
;WIDTH:0.419999
G1 X129.93 Y105.968 E.02365
G1 X128.534 Y105.966 E.04376
G1 X128.534 Y105.069 E.0281
M73 Q2 S25
G1 X129.701 Y104.159 E.04639
G1 X130.665 Y103.513 E.0364
G1 X130.641 Y103.834 E.0101
G1 X130.536 Y104.298 E.01492
G1 X130.499 Y104.816 E.01629
G1 X130.523 Y105.455 E.02006
G1 X130.702 Y105.635 E.00794
;WIDTH:0.419632
M73 P2 R25
G1 X131.933 Y105.643 E.03855
;WIDTH:0.419999
G1 X132.73 Y105.683 E.02503
G1 X134.338 Y105.686 E.05041
G1 X134.449 Y105.65 E.00366
G1 X134.499 Y105.551 E.00349
M204 S1000
G1 X134.913 Y105.394 F10800
G1 X134.694 Y105.989
M204 S800
;TYPE:Perimeter
;WIDTH:0.50316
G1 F1200
G1 X134.766 Y105.887 E.00477
;WIDTH:0.471791
G1 X134.837 Y105.784 E.00444
M204 S1000
;WIPE_START
G1 F8640
G1 X134.766 Y105.887 E-.02878
G1 X134.694 Y105.989 E-.02878
;WIPE_END
G1 E-.74245 F2100
G1 Z.6 F720
G1 X115.283 Y105.607 F10800
G1 Z.2 F720
G1 E.8 F2100
M204 S800
;WIDTH:0.419999
G1 F1200
G1 X113.911 Y105.588 E.043
G1 X113.911 Y105.249 E.01065
G1 X114.701 Y104.63 E.03145
G1 X115.155 Y104.308 E.01745
G1 X115.122 Y104.83 E.0164
G1 X115.146 Y105.469 E.02006
G1 X115.24 Y105.564 E.00421
M204 S1000
G1 X114.736 Y105.11 F10800
M204 S800
;WIDTH:0.521068
G1 F1200
G1 X114.677 Y105.11 E.00238
G1 X114.647 Y105.162 E.00238
G1 X114.677 Y105.214 E.00238
G1 X114.736 Y105.214 E.00238
G1 X114.766 Y105.162 E.00238
M204 S1000
;WIPE_START
G1 F8640
G1 X114.736 Y105.214 E-.0138
G1 X114.677 Y105.214 E-.0138
G1 X114.647 Y105.162 E-.0138
G1 X114.677 Y105.11 E-.0138
G1 X114.736 Y105.11 E-.0138
;WIPE_END
G1 E-.731 F2100
G1 Z.6 F720
G1 X119.694 Y105.988 F10800
G1 Z.2 F720
G1 E.8 F2100
M204 S800
;WIDTH:0.525951
G1 F1200
G1 X119.66 Y106.285 E.01201
G1 X119.579 Y106.305 E.00334
;WIDTH:0.486884
G1 X119.498 Y106.324 E.00307
;WIDTH:0.447817
G1 X119.418 Y106.344 E.0028
;WIDTH:0.40875
G1 X119.337 Y106.363 E.00253
;WIDTH:0.371512
G1 X117.729 Y106.363 E.04392
;WIDTH:0.373942
G1 X117.458 Y106.362 E.00748
G1 X117.449 Y106.206 E.00432
G1 X117.29 Y106.015 E.00684
G1 X117.73 Y106.035 E.01212
;WIDTH:0.371512
G1 X119.337 Y106.037 E.04392
;WIDTH:0.40875
G1 X119.384 Y106.049 E.00149
;WIDTH:0.447817
G1 X119.432 Y106.061 E.00165
;WIDTH:0.486884
G1 X119.479 Y106.073 E.0018
;WIDTH:0.525951
G1 X119.526 Y106.085 E.00196
G1 X119.642 Y106.018 E.00538
M204 S1000
;WIPE_START
G1 F8640
G1 X119.66 Y106.285 E-.06179
G1 X119.579 Y106.305 E-.01918
G1 X119.498 Y106.324 E-.01918
G1 X119.418 Y106.344 E-.01918
G1 X119.337 Y106.363 E-.01918
G1 X117.729 Y106.363 E-.37121
