; generated by PrusaSlicer 2.5.0+win64 on 2023-03-22 at 13:02:59 UTC


;
;
; 

; external perimeters extrusion width = 0.45mm
; perimeters extrusion width = 0.45mm
; infill extrusion width = 0.45mm
; solid infill extrusion width = 0.45mm
; top infill extrusion width = 0.40mm
; first layer extrusion width = 0.42mm

M73 P0 R59
M73 Q0 S59
M201 X1000 Y1000 Z200 E5000 ; sets maximum accelerations, mm/sec^2
M203 X200 Y200 Z12 E120 ; sets maximum feedrates, mm / sec
M204 P1250 R1250 T1250 ; sets acceleration (P, T) and retract acceleration (R), mm/sec^2
M205 X8.00 Y8.00 Z0.40 E4.50 ; sets the jerk limits, mm/sec
M205 S0 T0 ; sets the minimum extruding and travel feed rate, mm/sec
M107
;TYPE:Custom
M862.3 P "MK3S" ; printer model check
M862.1 P0.4 ; nozzle diameter check
M115 U3.11.0 ; tell printer latest fw version
G90 ; use absolute coordinates
M83 ; extruder relative mode
M104 S215 ; set extruder temp
M140 S60 ; set bed temp
M190 S60 ; wait for bed temp
M109 S215 ; wait for extruder temp
G28 W ; home all without mesh bed level
G80 ; mesh bed leveling

G1 Z0.2 F720
G1 Y-3 F1000 ; go outside print area
G92 E0
G1 X60 E9 F1000 ; intro line
G1 X100 E12.5 F1000 ; intro line

G92 E0
M221 S95

; Don't change E values below. Excessive value can damage the printer.
M907 E430 ; set extruder motor current
G21 ; set units to millimeters
G90 ; use absolute coordinates
M83 ; use relative distances for extrusion
M900 K0.05 ; Filament gcode LA 1.5
M900 K30 ; Filament gcode LA 1.0
M107
;LAYER_CHANGE
;Z:0.2
;HEIGHT:0.2
;BEFORE_LAYER_CHANGE
G92 E0.0
;0.2


G1 E-.8 F2100
G1 Z.4 F720
;AFTER_LAYER_CHANGE
;0.2
G1 X108.025 Y91.376 F10800
G1 Z.2 F720
G1 E.8 F2100
M204 S800
;TYPE:Skirt/Brim
;WIDTH:0.42
G1 F1200
G1 X109.18 Y90.465 E.04612
G1 X110.243 Y90.251 E.03402
G1 X129.214 Y90.245 E.59483
G1 X130.632 Y90.638 E.04612
G1 X131.644 Y91.705 E.04612
G1 X131.967 Y92.999 E.0418
G1 X131.967 Y116.999 E.7525
G1 X131.574 Y118.416 E.04612
G1 X130.508 Y119.43 E.04612
G1 X129.213 Y119.753 E.04186
G1 X110.251 Y119.753 E.59454
G1 X108.833 Y119.36 E.04612
G1 X108.046 Y118.65 E.03323
G1 X107.142 Y117.36 E.04939
G1 X105.871 Y115.16 E.07967
G1 X105.169 Y113.645 E.05237
G1 X104.328 Y111.279 E.07871
G1 X103.955 Y109.841 E.0466
G1 X103.667 Y108.285 E.04959
G1 X103.436 Y105.809 E.07799
G1 X103.432 Y104.284 E.0478
G1 X103.535 Y102.772 E.04753
G1 X103.927 Y100.286 E.0789
G1 X104.265 Y98.935 E.04366
G1 X104.743 Y97.447 E.04902
G1 X105.727 Y95.127 E.079
G1 X106.449 Y93.765 E.04833
G1 X107.259 Y92.46 E.04817
G1 X107.99 Y91.425 E.03973
M204 S1000
G1 X108.237 Y91.73 F10800
M204 S800
G1 F1200
G1 X109.418 Y90.777 E.0476
G1 X110.244 Y90.628 E.02632
G1 X129.214 Y90.622 E.59481
G1 X130.521 Y91.014 E.04278
G1 X131.397 Y92.061 E.04278
G1 X131.59 Y92.999 E.03004
G1 X131.59 Y116.999 E.7525
G1 X131.198 Y118.306 E.04278
G1 X130.152 Y119.182 E.04278
G1 X129.213 Y119.376 E.03008
G1 X110.251 Y119.376 E.59454
G1 X108.944 Y118.984 E.04278
G1 X108.299 Y118.358 E.02818
G1 X106.791 Y116.072 E.08587
G1 X106.092 Y114.762 E.04657
G1 X105.113 Y112.465 E.07828
G1 X104.666 Y111.093 E.04523
G1 X104.286 Y109.584 E.04878
G1 X103.904 Y107.147 E.07736
G1 X103.808 Y105.676 E.04621
G1 X103.816 Y104.154 E.04773
G1 X104.049 Y101.701 E.07725
G1 X104.671 Y98.887 E.09035
G1 X105.5 Y96.542 E.07798
G1 X106.123 Y95.171 E.04724
G1 X106.836 Y93.849 E.04708
G1 X108.202 Y91.779 E.07776
M204 S1000
; printing object tarrrrrrrrrget v3.stl id:0 copy 0
;WIPE_START
G1 F8640
G1 X109.418 Y90.777 E-.36383
G1 X110.244 Y90.628 E-.19381
G1 X111.12 Y90.627 E-.20236
;WIPE_END
G1 E-.04 F2100
G1 Z.6 F720
G1 X110.791 Y116.212 F10800
G1 Z.2 F720
G1 E.8 F2100
M204 S800
;TYPE:Perimeter
;WIDTH:0.419999
G1 F1200
G1 X110.287 Y115.494 E.0275
G1 X109.67 Y114.497 E.03676
G1 X109.109 Y113.455 E.03711
G1 X108.607 Y112.368 E.03755
G1 X108.187 Y111.291 E.03623
G1 X107.829 Y110.177 E.03671
G1 X107.54 Y109.045 E.03661
G1 X107.323 Y107.9 E.03654
G1 X107.178 Y106.746 E.03648
G1 X107.105 Y105.585 E.03645
G1 X107.105 Y104.423 E.03644
G1 X107.177 Y103.263 E.03644
G1 X107.326 Y102.088 E.03715
G1 X107.538 Y100.963 E.03588
G1 X107.826 Y99.831 E.03663
G1 X108.184 Y98.715 E.03673
G1 X108.611 Y97.621 E.03683
G1 X109.105 Y96.55 E.03697
G1 X109.666 Y95.508 E.03712
G1 X110.291 Y94.497 E.03728
G1 X110.791 Y93.786 E.02724
G1 X119.799 Y93.786 E.28244
G1 X121.502 Y99.681 E.19238
;WIDTH:0.467119
G1 X121.545 Y99.912 E.00829
;WIDTH:0.514239
G1 X121.587 Y100.143 E.00921
;WIDTH:0.561359
G1 X121.629 Y100.374 E.01013
G1 X121.787 Y100.89 E.02328
;WIDTH:0.582942
G1 X121.917 Y101.409 E.02402
G1 X121.978 Y101.547 E.00674
;WIDTH:0.542207
G1 X122.039 Y101.684 E.00623
;WIDTH:0.501471
G1 X122.099 Y101.821 E.00572
;WIDTH:0.460735
G1 X122.16 Y101.958 E.00521
;WIDTH:0.419999
G1 X123.132 Y105.318 E.10969
G1 X123.34 Y105.878 E.01871
G1 X123.623 Y106.412 E.01896
G1 X123.974 Y106.904 E.01896
G1 X124.387 Y107.346 E.01895
G1 X124.856 Y107.731 E.01903
G1 X125.326 Y108.027 E.01741
G1 X125.875 Y108.281 E.01895
G1 X126.452 Y108.461 E.01895
G1 X127.006 Y108.56 E.01767
G1 X128.324 Y108.711 E.04159
G1 X128.324 Y108.908 E.00618
G1 X128.324 Y116.212 E.22902
G1 X110.851 Y116.212 E.54785
M204 S1000
G1 X110.595 Y116.588 F10800
M204 S800
;TYPE:External perimeter
G1 F1200
G1 X109.972 Y115.702 E.03397
G1 X109.344 Y114.686 E.03747
G1 X108.772 Y113.624 E.03782
G1 X108.26 Y112.516 E.03827
G1 X107.831 Y111.418 E.03695
G1 X107.466 Y110.281 E.03744
G1 X107.172 Y109.127 E.03735
G1 X106.951 Y107.959 E.03727
G1 X106.803 Y106.781 E.03722
G1 X106.728 Y105.597 E.03719
G1 X106.728 Y104.412 E.03718
G1 X106.802 Y103.228 E.03719
G1 X106.953 Y102.029 E.03789
G1 X107.17 Y100.882 E.03661
G1 X107.463 Y99.727 E.03736
G1 X107.828 Y98.589 E.03746
G1 X108.263 Y97.473 E.03755
G1 X108.768 Y96.382 E.03769
G1 X109.339 Y95.319 E.03783
G1 X109.977 Y94.289 E.03799
G1 X110.596 Y93.409 E.03373
G1 X120.083 Y93.409 E.29747
G1 X123.487 Y105.19 E.3845
M73 P0 R58
G1 X123.675 Y105.704 E.01715
G1 X123.932 Y106.196 E.0174
G1 X124.252 Y106.649 E.0174
G1 X124.628 Y107.057 E.0174
G1 X125.059 Y107.414 E.01754
G1 X125.488 Y107.686 E.01592
G1 X125.99 Y107.922 E.0174
G1 X126.519 Y108.09 E.0174
G1 X127.048 Y108.186 E.01687
G1 X128.702 Y108.38 E.0522
G1 X128.702 Y116.589 E.2574
G1 X110.655 Y116.589 E.56584
M204 S1000
G1 X110.584 Y116.188 F10800
;WIPE_START
G1 F8640
G1 X109.972 Y115.702 E-.25845
G1 X109.344 Y114.686 E-.27591
G1 X108.88 Y113.825 E-.22563
;WIPE_END
G1 E-.04 F2100
G1 Z.6 F720
G1 X117.24 Y106.992 F10800
G1 Z.2 F720
G1 E.8 F2100
M204 S800
;TYPE:Perimeter
G1 F1200
G1 X117.276 Y106.937 E.00207
G1 X117.648 Y106.585 E.01605
G1 X118.089 Y106.325 E.01605
G1 X118.577 Y106.169 E.01605
G1 X119.109 Y106.135 E.01671
G1 X119.594 Y106.197 E.01533
G1 X120.072 Y106.38 E.01605
G1 X120.498 Y106.664 E.01605
G1 X120.846 Y107.03 E.01585
G1 X121.104 Y107.462 E.01577
G1 X121.265 Y107.964 E.01655
G1 X121.312 Y108.426 E.01455
G1 X121.248 Y108.947 E.01647
G1 X121.074 Y109.426 E.01595
G1 X120.77 Y109.885 E.01727
G1 X120.399 Y110.237 E.01605
G1 X119.958 Y110.497 E.01605
G1 X119.47 Y110.653 E.01605
G1 X118.96 Y110.696 E.01605
G1 X118.453 Y110.624 E.01605
G1 X117.975 Y110.442 E.01605
G1 X117.549 Y110.158 E.01605
G1 X117.197 Y109.786 E.01605
G1 X116.937 Y109.345 E.01605
G1 X116.782 Y108.858 E.01605
G1 X116.738 Y108.348 E.01605
G1 X116.807 Y107.848 E.0158
G1 X116.992 Y107.362 E.01631
G1 X117.207 Y107.041 E.0121
M204 S1000
G1 X117.56 Y107.186 F10800
M204 S800
;TYPE:External perimeter
G1 F1200
G1 X117.849 Y106.904 E.01265
G1 X118.214 Y106.681 E.01341
G1 X118.619 Y106.544 E.01341
G1 X119.074 Y106.511 E.01429
G1 X119.469 Y106.553 E.01247
G1 X119.871 Y106.699 E.01341
G1 X120.231 Y106.931 E.01341
G1 X120.53 Y107.236 E.01341
G1 X120.756 Y107.607 E.01359
G1 X120.89 Y108.006 E.01323
G1 X120.935 Y108.416 E.01291
G1 X120.881 Y108.857 E.01392
G1 X120.735 Y109.259 E.01341
G1 X120.504 Y109.618 E.01341
G1 X120.198 Y109.917 E.01341
G1 X119.833 Y110.141 E.01341
G1 X119.428 Y110.278 E.01341
G1 X119.002 Y110.321 E.01341
G1 X118.578 Y110.268 E.01341
G1 X118.176 Y110.123 E.01341
G1 X117.816 Y109.891 E.01341
G1 X117.517 Y109.585 E.01341
G1 X117.293 Y109.221 E.01341
G1 X117.156 Y108.815 E.01341
G1 X117.113 Y108.39 E.01341
G1 X117.166 Y107.965 E.01341
G1 X117.312 Y107.563 E.01341
G1 X117.524 Y107.233 E.01229
M204 S1000
G1 X117.42 Y106.812 F10800
;WIPE_START
G1 F8640
G1 X117.849 Y106.904 E-.10682
G1 X118.214 Y106.681 E-.09878
G1 X118.619 Y106.544 E-.09878
G1 X119.074 Y106.511 E-.10525
G1 X119.469 Y106.553 E-.09186
G1 X119.871 Y106.699 E-.09877
G1 X120.231 Y106.931 E-.09878
G1 X120.416 Y107.119 E-.06098
;WIPE_END
G1 E-.04 F2100
G1 Z.6 F720
G1 X116.815 Y101.036 F10800
G1 Z.2 F720
G1 E.8 F2100
M204 S800
;TYPE:Perimeter
G1 F1200
G1 X116.937 Y100.653 E.0126
G1 X117.197 Y100.212 E.01605
G1 X117.549 Y99.84 E.01605
G1 X117.975 Y99.556 E.01605
G1 X118.453 Y99.373 E.01605
G1 X119.04 Y99.305 E.01852
G1 X119.593 Y99.373 E.01748
G1 X120.072 Y99.556 E.01606
G1 X120.498 Y99.84 E.01605
G1 X120.849 Y100.212 E.01605
;WIDTH:0.465101
G1 X120.957 Y100.351 E.00619
;WIDTH:0.510203
G1 X121.065 Y100.491 E.00685
;WIDTH:0.555304
G1 X121.173 Y100.63 E.00752
G1 X121.33 Y101.133 E.02243
;WIDTH:0.582942
G1 X121.389 Y101.515 E.01734
G1 X121.358 Y101.644 E.00599
;WIDTH:0.542207
G1 X121.327 Y101.774 E.00554
;WIDTH:0.501471
G1 X121.296 Y101.904 E.00509
;WIDTH:0.460735
G1 X121.265 Y102.034 E.00464
;WIDTH:0.419999
G1 X121.11 Y102.521 E.01605
G1 X120.849 Y102.962 E.01605
G1 X120.498 Y103.334 E.01605
G1 X120.072 Y103.618 E.01605
G1 X119.594 Y103.801 E.01605
G1 X119.087 Y103.872 E.01605
G1 X118.577 Y103.829 E.01605
G1 X118.089 Y103.673 E.01605
G1 X117.648 Y103.413 E.01605
G1 X117.276 Y103.061 E.01605
G1 X116.992 Y102.635 E.01605
G1 X116.81 Y102.157 E.01605
G1 X116.738 Y101.65 E.01605
G1 X116.797 Y101.093 E.01758
M204 S1000
G1 X117.173 Y101.123 F10800
M204 S800
;TYPE:External perimeter
G1 F1200
G1 X117.312 Y100.739 E.01279
G1 X117.543 Y100.38 E.01341
G1 X117.849 Y100.08 E.01341
G1 X118.214 Y99.857 E.01341
G1 X118.619 Y99.72 E.01341
G1 X119.005 Y99.68 E.01217
G1 X119.469 Y99.729 E.01463
G1 X119.871 Y99.875 E.01342
G1 X120.231 Y100.107 E.01341
G1 X120.53 Y100.413 E.01341
G1 X120.754 Y100.777 E.01341
G1 X120.89 Y101.183 E.01341
G1 X120.934 Y101.566 E.0121
G1 X120.881 Y102.033 E.01473
G1 X120.735 Y102.435 E.01341
G1 X120.504 Y102.795 E.01341
G1 X120.198 Y103.094 E.01341
G1 X119.833 Y103.317 E.01341
G1 X119.394 Y103.458 E.01445
G1 X118.966 Y103.493 E.01347
G1 X118.578 Y103.445 E.01228
G1 X118.176 Y103.299 E.01341
G1 X117.816 Y103.067 E.01341
G1 X117.517 Y102.762 E.01341
G1 X117.293 Y102.397 E.01341
G1 X117.156 Y101.992 E.01341
G1 X117.113 Y101.566 E.01341
G1 X117.161 Y101.181 E.01216
M204 S1000
G1 X116.883 Y100.847 F10800
;WIPE_START
G1 F8640
G1 X117.312 Y100.739 E-.10782
G1 X117.543 Y100.38 E-.09877
G1 X117.849 Y100.08 E-.09878
G1 X118.214 Y99.857 E-.09878
G1 X118.619 Y99.72 E-.09877
G1 X119.005 Y99.68 E-.0896
G1 X119.469 Y99.729 E-.10771
G1 X119.712 Y99.818 E-.05977
;WIPE_END
G1 E-.04 F2100
G1 Z.6 F720
G1 X122.208 Y102.532 F10800
G1 Z.2 F720
G1 E.8 F2100
M204 S800
;TYPE:Solid infill
;WIDTH:0.422386
G1 F1200
G1 X121.596 Y101.919 E.02733
G1 X121.467 Y102.327 E.0135
G1 X122.178 Y103.038 E.03172
G1 X122.396 Y103.793 E.02479
G1 X121.325 Y102.722 E.04777
G1 X121.124 Y103.057 E.01234
G1 X122.614 Y104.547 E.0665
G1 X122.832 Y105.302 E.02479
G1 X120.761 Y103.231 E.09242
M204 S1000
;WIPE_START
G1 F8640
G1 X122.832 Y105.302 E-.67635
G1 X122.731 Y104.954 E-.08365
;WIPE_END
G1 E-.04 F2100
G1 Z.6 F720
G1 X127.312 Y108.708 F10800
G1 Z.2 F720
G1 E.8 F2100
M204 S800
G1 F1200
G1 X128.042 Y109.438 E.03257
G1 X128.042 Y109.975 E.01693
G1 X126.894 Y108.827 E.05121
G1 X126.395 Y108.739 E.01597
G1 X126.21 Y108.68 E.00613
G1 X128.042 Y110.512 E.08172
G1 X128.042 Y111.048 E.01693
G1 X125.337 Y108.343 E.1207
G1 X125.16 Y108.259 E.00618
G1 X124.656 Y107.937 E.01885
G1 X124.175 Y107.536 E.01978
G1 X123.762 Y107.091 E.01915
G1 X123.347 Y106.505 E.02267
G1 X123.191 Y106.197 E.01088
G1 X120.603 Y103.61 E.11547
G1 X120.279 Y103.822 E.01223
G1 X128.042 Y111.585 E.34639
G1 X128.042 Y112.121 E.01693
G1 X119.909 Y103.988 E.36292
G1 X119.598 Y104.094 E.01036
G1 X119.49 Y104.107 E.00341
G1 X128.042 Y112.658 E.38158
G1 X128.042 Y113.195 E.01693
G1 X118.81 Y103.963 E.41195
M204 S1000
;WIPE_START
G1 F8640
G1 X121.137 Y106.29 E-.76
;WIPE_END
G1 E-.04 F2100
G1 Z.6 F720
G1 X118.942 Y93.899 F10800
G1 Z.2 F720
G1 E.8 F2100
M204 S800
G1 F1200
G1 X119.78 Y94.736 E.03736
G1 X119.998 Y95.491 E.02479
G1 X118.575 Y94.069 E.06346
G1 X118.039 Y94.069 E.01693
M73 Q1 S59
G1 X120.216 Y96.246 E.09714
G1 X120.434 Y97 E.02479
M73 P1 R58
G1 X117.502 Y94.069 E.13082
G1 X116.965 Y94.069 E.01693
G1 X120.652 Y97.755 E.16449
G1 X120.87 Y98.51 E.02479
G1 X116.429 Y94.069 E.19817
G1 X115.892 Y94.069 E.01693
G1 X121.088 Y99.264 E.23184
G1 X121.288 Y100.001 E.02409
G1 X115.355 Y94.069 E.26471
G1 X114.819 Y94.069 E.01693
M73 Q1 S58
G1 X119.948 Y99.198 E.22887
G1 X119.681 Y99.105 E.00891
G1 X119.49 Y99.063 E.00619
G1 X119.261 Y99.048 E.00723
G1 X114.282 Y94.069 E.22218
G1 X113.746 Y94.069 E.01693
G1 X118.725 Y99.048 E.22219
G1 X118.401 Y99.093 E.01033
G1 X118.276 Y99.136 E.00415
G1 X113.209 Y94.069 E.22612
G1 X112.672 Y94.069 E.01693
G1 X117.888 Y99.285 E.23276
G1 X117.553 Y99.487 E.01234
G1 X112.136 Y94.069 E.24176
G1 X111.599 Y94.069 E.01693
G1 X117.26 Y99.73 E.2526
G1 X117.001 Y100.007 E.01198
G1 X111.062 Y94.069 E.26498
G1 X110.938 Y94.069 E.00392
G1 X110.768 Y94.311 E.00934
G1 X116.788 Y100.332 E.26865
G1 X116.672 Y100.555 E.00795
G1 X116.623 Y100.702 E.0049
G1 X110.546 Y94.626 E.27115
G1 X110.34 Y94.956 E.01229
G1 X116.503 Y101.12 E.27504
G1 X116.457 Y101.61 E.01553
G1 X110.135 Y95.288 E.28211
G1 X109.93 Y95.619 E.0123
G1 X116.548 Y102.237 E.29531
G1 X116.732 Y102.752 E.01724
G1 X116.961 Y103.117 E.0136
G1 X117.073 Y103.258 E.00568
G1 X117.414 Y103.593 E.0151
G1 X117.903 Y103.902 E.01824
G1 X118.384 Y104.074 E.01612
G1 X128.042 Y113.731 E.43095
G1 X128.042 Y114.268 E.01693
G1 X121.478 Y107.705 E.29288
G1 X121.331 Y107.275 E.01433
G1 X121.079 Y106.87 E.01502
G1 X120.695 Y106.461 E.01772
G1 X120.553 Y106.348 E.00572
G1 X120.143 Y106.096 E.01518
G1 X119.714 Y105.94 E.01442
G1 X109.74 Y95.967 E.44503
G1 X109.553 Y96.316 E.0125
G1 X119.098 Y105.861 E.42593
G1 X118.9 Y105.848 E.00625
G1 X118.587 Y105.887 E.00995
G1 X109.365 Y96.665 E.41152
G1 X109.195 Y97.031 E.01275
G1 X118.167 Y106.003 E.40035
G1 X117.903 Y106.096 E.00882
G1 X117.793 Y106.166 E.00413
G1 X109.025 Y97.398 E.39123
G1 X108.857 Y97.767 E.01278
G1 X117.464 Y106.373 E.38405
G1 X117.184 Y106.631 E.01198
G1 X108.707 Y98.153 E.3783
G1 X108.556 Y98.539 E.01308
G1 X116.937 Y106.92 E.37396
G1 X116.73 Y107.25 E.01229
G1 X108.411 Y98.931 E.37121
G1 X108.281 Y99.337 E.01346
G1 X116.586 Y107.642 E.37058
G1 X116.507 Y107.884 E.00804
G1 X116.485 Y108.078 E.00615
G1 X108.151 Y99.744 E.3719
G1 X108.033 Y100.163 E.01373
G1 X116.662 Y108.792 E.38506
M204 S1000
;WIPE_START
G1 F8640
G1 X114.335 Y106.465 E-.76
;WIPE_END
G1 E-.04 F2100
G1 Z.6 F720
G1 X121.397 Y108.16 F10800
G1 Z.2 F720
G1 E.8 F2100
M204 S800
G1 F1200
G1 X128.042 Y114.805 E.2965
G1 X128.042 Y115.341 E.01693
G1 X121.548 Y108.847 E.28978
G1 X121.533 Y108.971 E.00393
G1 X121.431 Y109.268 E.0099
G1 X128.042 Y115.878 E.29497
G1 X128.042 Y115.929 E.00161
G1 X127.556 Y115.929 E.01532
G1 X121.269 Y109.642 E.28057
G1 X121.063 Y109.973 E.0123
G1 X127.019 Y115.929 E.26577
G1 X126.483 Y115.929 E.01693
G1 X120.802 Y110.248 E.2535
G1 X120.695 Y110.361 E.00491
G1 X120.515 Y110.498 E.00713
G1 X125.946 Y115.929 E.24236
G1 X125.41 Y115.929 E.01693
G1 X120.182 Y110.702 E.23326
G1 X119.793 Y110.849 E.01314
G1 X124.873 Y115.929 E.2267
G1 X124.336 Y115.929 E.01693
G1 X119.355 Y110.947 E.22229
G1 X119.024 Y110.983 E.0105
G1 X118.834 Y110.963 E.00602
G1 X123.8 Y115.929 E.22159
G1 X123.263 Y115.929 E.01693
G1 X118.153 Y110.819 E.22803
G1 X117.829 Y110.684 E.01106
G1 X117.493 Y110.473 E.01251
G1 X117.353 Y110.362 E.00566
G1 X117.073 Y110.081 E.01251
G1 X116.96 Y109.94 E.00568
G1 X116.701 Y109.515 E.01572
G1 X116.623 Y109.29 E.00752
G1 X107.925 Y100.591 E.38817
G1 X107.816 Y101.019 E.01393
